X:1
T:On My Way to Zion
T:On My Way to Zion
T:George William Baumeister, 1881
T:D. E. Goodhart, 1876
T:Public Domain Courtesy of the Cyber Hymnal™
T:Public Domain Courtesy of the Cyber Hymnal™
C:George William Baumeister, 1881
Z:Public Domain
Z:Courtesy of the Cyber Hymnal™
%%score ( 1 2 ) ( 3 4 )
L:1/8
Q:1/4=105
M:4/4
K:F
V:1 treble 
V:2 treble 
V:3 bass 
V:4 bass 
V:1
 F>[FG] | [FA]2 [FA]2 [Fc]2 [FA]2 | [FA]2 [EG]4 [EG]>[FA] | [GB]2 [GB]2 [GB]2 ([Ac][GB]) | %4
w: 1.~I am|on my way to|Zi- on, To the|ci- ty of my *|
w: 2.~When I|pass the gloom- y|val- ley, Je- sus|will be there to *|
w: 3.~When I|reach that land im-|mor- tal, When I|join that ho- ly *|
 [FA]6 [FA]>[FB] | [Fc]2 [Fc]2 [Fd]2 [Fc]2 | [Fc]2 [EB]4 [EB]>[FA] | [EG]2 [EG]2 [EG]2 (A>G) | %8
w: God; I am|tread- ing the same|path- way That be-|fore the saints have *|
w: guide; He will|lead me thro’ the|dark- ness; He’ll be|ev- er at my *|
w: throng, With the|saints and ho- ly|an- gels, We will|sing our glad new *|
 F6"^Duet" [EG]>[FA] | [GB]2 [EG]2 [EG]2 ([FA][GB]) | [Ac]2 [FA]4 [FA]>[FA] | %11
w: trod; Tho’ the|road is rough and *|thorn- y, And temp-|
w: side; He’ll be|with me at the *|riv- er, When I|
w: song; We will|sing the praise of *|Je- sus ’Neath the|
 [EG]2 [Ec]2 [Ge]2 [Fd]2 | [Ec]6 [Cc]>[CB] | [CA]2 [CA]2 [^CA]2 [CG]2 | [DF]2 [B,D]4 [DB]>[DB] | %15
w: ta- tions oft- en|come, Yet I|know that ev- ery|even- ing, I am|
w: cross its dark- est|foam, And in|sweet- est ac- cents|whis- per, “Cheer up,|
w: spires of Heav’n’s high|dome. There, with|an- thems loud- ly|ring- ing, Praise Him|
 [CA]2 [CF]2 [CG]2 [CE]2 | [CF]6 ||"^Refrain" [FA]>[GB] | [Ac]6 F>G | (z2 F2) [FA]>[FB] x11/2 | %20
w: one day near- er|home.||||
w: soul, you’re near- er|home.”|Near- er|home, near- er|* home, I|
w: in our heav’n- ly|home.||||
 [Fc]2 [Fc]2 [GB]2 [FA]2 | [EG]6 [Cc]>[CB] | [CA]2 [CA]2 [^CA]2 [CG]2 | [DF]2 [B,D]4 [DB]>[DB] | %24
w: ||||
w: * am one day|near- er home;|Yes, I know, at|ev- ery even- ing,|
w: ||||
"^riten." [CA]2 [CF]2 [CG]2 [CE]2 | [CF]6 |] %26
w: ||
w: I am one day|near-|
w: ||
V:2
 F3/2 x/ | x8 | x8 | x8 | x8 | x8 | x8 | x6 E2 | F6 x2 | x8 | x8 | x8 | x8 | x8 | x8 | x8 | x6 || %17
 x2 | x8 | A6 F>C x7/2 | x8 | x8 | x8 | x8 | x8 | x6 |] %26
V:3
 [F,A,]>[F,B,] | [F,C]2 [F,C]2 [F,A,]2 [F,C]2 | [C,C]2 [C,C]4 [C,C]>[C,C] | %3
w: ~ ~|~ ~ ~ ~|~ ~ ~ ~|
 [C,C]2 [C,C]2 [C,C]2 [C,C]2 | [F,C]6 F,>[F,G,] | [F,A,]2 [F,A,]2 [F,B,]2 [F,A,]2 | %6
w: ~ ~ ~ ~|~ ~ ~|~ ~ ~ ~|
 [C,A,]2 [C,G,]4 [C,G,]>[C,A,] | [C,B,]2 [C,B,]2 [C,B,]2 (C>B,) | [F,A,]6 z2 | %9
w: ~ ~ ~ ~|~ ~ ~ ~ *|~|
 C,2 C2 (CB,) (A,G,) | [F,,F,]2 [F,C]4 [F,C]2 | [G,C]4 [G,=B,]4 | [C,C]6 [E,G,]>[E,G,] | %13
w: ~ ~ ~ * ~ *|~ ~ ~|~ ~|~ ~ ~|
 F,2 F,2 [A,,E,]2 [A,,E,]2 | [B,,D,]2 [B,,F,]4 [B,,F,]>[B,,F,] | [C,F,]2 [C,A,]2 [C,B,]2 [C,G,]2 | %16
w: ~ ~ ~ ~|~ ~ ~ ~|~ ~ ~ ~|
 [F,A,]6 || z2 | z2 [F,C]>[F,A,] [F,C]2 A,>B, | z2 F,>[F,G,] x15/2 | %20
w: ~||near- er home, ~ ~|~ near-|
 [F,A,]2 [F,A,]2 [E,C]2 [F,C]2 | [C,C]2 [C,E,C]>[C,G,C] [C,C]2 [E,G,]>[E,G,] | %22
w: er home ~ ~|~ ~ ~ ~ ~ near-|
 F,2 F,2 [A,,E,]2 [A,,E,]2 | [B,,D,]2 [B,,F,]4 [B,,F,]>[B,,F,] | [C,F,]2 [C,A,]2 [C,B,]2 [C,G,]2 | %25
w: er home, * *|||
 [F,,F,A,]6 |] %26
w: |
V:4
 x2 | x8 | x8 | x8 | x6 F,3/2 x/ | x8 | x8 | x6 C,2 | x8 | x8 | x8 | x8 | x8 | F,2 F,2 x4 | x8 | %15
 x8 | x6 || x2 | x8 | C6 F,>F, F,2 F,3/2 | x8 | x8 | F,2 F,2 x4 | x8 | x8 | x6 |] %26

